src/icons/webhooks-outgoing.svg

<?xml version="1.0" encoding="UTF-8"?>
<svg width="512px" height="512px" viewBox="0 0 512 512" version="1.1" xmlns="http://www.w3.org/2000/svg" xmlns:xlink="http://www.w3.org/1999/xlink">
    <!-- Generator: Sketch 62 (91390) - https://sketch.com -->
    <title>webhooks-outgoing</title>
    <desc>Created with Sketch.</desc>
    <g id="webhooks-outgoing" stroke="none" stroke-width="1" fill="none" fill-rule="evenodd">
        <path d="M187.85,102.813861 C162.65,104.613861 138.55,118.613861 125.05,142.113861 C106.05,175.013861 113.95,216.213861 141.25,240.413861 L114.75,286.013861 C103.65,286.013861 93.35,292.013861 87.65,301.713861 C78.95,316.713861 83.95,335.713861 98.95,344.413861 C113.95,353.113861 133.05,348.113861 141.65,333.113861 C147.25,323.313861 147.25,311.413861 141.65,301.613861 L183.45,229.813861 L169.75,222.013861 C147.25,208.913861 139.55,180.213861 152.55,157.713861 C165.55,135.213861 194.35,127.513861 216.85,140.513861 C239.35,153.513861 247.05,182.313861 234.05,204.813861 L261.55,220.513861 C283.25,183.013861 270.05,134.613861 232.55,112.913861 C219.05,105.413861 203.45,101.713861 187.85,102.813861 Z M189.35,150.013861 C185.35,150.513861 181.25,151.813861 177.55,154.013861 C162.55,162.713861 157.65,182.213861 166.25,197.213861 C171.75,207.013861 182.05,212.913861 193.35,212.913861 L234.55,284.713861 L248.25,276.913861 C270.75,263.813861 299.55,271.513861 312.55,294.113861 C325.55,316.713861 317.95,345.413861 295.35,358.413861 C272.75,371.413861 244.05,363.813861 231.05,341.213861 L203.55,356.913861 C225.25,394.413861 273.65,407.613861 311.15,385.913861 C348.65,364.213861 361.85,315.813861 340.15,278.313861 C321.15,245.413861 281.45,231.313861 246.85,243.013861 L220.15,197.513861 C225.75,187.713861 225.75,175.813861 220.15,166.013861 C213.75,154.513861 201.55,148.413861 189.35,150.013861 Z M114.65,238.913861 C71.35,238.913861 36.05,274.113861 36.05,317.513861 C36.05,360.813861 71.25,396.113861 114.65,396.113861 C152.55,396.113861 184.45,369.013861 191.75,333.313861 L244.85,333.313861 C250.35,342.613861 260.25,349.013861 271.95,349.013861 C289.25,349.013861 303.45,335.013861 303.45,317.713861 C303.45,300.413861 289.45,286.213861 272.15,286.213861 C260.65,286.213861 250.55,292.513861 245.05,301.913861 L162.05,301.913861 L162.05,317.613861 C162.05,343.613861 140.85,364.713861 114.95,364.713861 C89.05,364.713861 67.85,343.513861 67.85,317.613861 C67.85,291.713861 88.85,270.413861 114.85,270.413861 C114.65,270.413861 114.65,238.913861 114.65,238.913861 Z M382.55,158.113861 L383.75,159.113861 L471.15,235.013861 C474.15,237.713861 475.95,241.613861 475.95,245.713861 C475.95,250.013861 474.05,253.813861 471.15,256.413861 L383.85,332.313861 L382.35,333.513861 C380.95,334.513861 379.15,335.013861 377.55,335.013861 C372.75,335.013861 368.75,330.913861 368.75,325.813861 L368.75,165.813861 C368.75,160.713861 372.75,156.613861 377.55,156.613861 C379.45,156.613861 381.25,157.113861 382.55,158.113861 Z" id="Shape" fill="#000000" fill-rule="nonzero"></path>
    </g>
</svg>

<svg xmlns="http://www.w3.org/2000/svg" width="512" height="512" viewBox="0 0 512 512">
    <path d="M187.85 102.814c-25.2 1.8-49.3 15.8-62.8 39.3-19 32.9-11.1 74.1 16.2 98.3l-26.5 45.6c-11.1 0-21.4 6-27.1 15.7-8.7 15-3.7 34 11.3 42.7 15 8.7 34.1 3.7 42.7-11.3 5.6-9.8 5.6-21.7 0-31.5l41.8-71.8-13.7-7.8c-22.5-13.1-30.2-41.8-17.2-64.3s41.8-30.2 64.3-17.2 30.2 41.8 17.2 64.3l27.5 15.7c21.7-37.5 8.5-85.9-29-107.6-13.5-7.5-29.1-11.2-44.7-10.1zm1.5 47.2c-4 .5-8.1 1.8-11.8 4-15 8.7-19.9 28.2-11.3 43.2 5.5 9.8 15.8 15.7 27.1 15.7l41.2 71.8 13.7-7.8c22.5-13.1 51.3-5.4 64.3 17.2s5.4 51.3-17.2 64.3-51.3 5.4-64.3-17.2l-27.5 15.7c21.7 37.5 70.1 50.7 107.6 29 37.5-21.7 50.7-70.1 29-107.6-19-32.9-58.7-47-93.3-35.3l-26.7-45.5c5.6-9.8 5.6-21.7 0-31.5-6.4-11.5-18.6-17.6-30.8-16zm-74.7 88.9c-43.3 0-78.6 35.2-78.6 78.6 0 43.3 35.2 78.6 78.6 78.6 37.9 0 69.8-27.1 77.1-62.8h53.1c5.5 9.3 15.4 15.7 27.1 15.7 17.3 0 31.5-14 31.5-31.3s-14-31.5-31.3-31.5c-11.5 0-21.6 6.3-27.1 15.7h-83v15.7c0 26-21.2 47.1-47.1 47.1-25.9 0-47.1-21.2-47.1-47.1 0-25.9 21-47.2 47-47.2-.2 0-.2-31.5-.2-31.5zm267.9-80.8l1.2 1 87.4 75.9c3 2.7 4.8 6.6 4.8 10.7 0 4.3-1.9 8.1-4.8 10.7l-87.3 75.9-1.5 1.2c-1.4 1-3.2 1.5-4.8 1.5-4.8 0-8.8-4.1-8.8-9.2v-160c0-5.1 4-9.2 8.8-9.2 1.9 0 3.7.5 5 1.5z"/>
</svg>
